SVG_Azure_Grouped/Management/Scheduler Job Collection.svg

<?xml version="1.0" encoding="UTF-8" standalone="no"?>
<!-- Generated by Microsoft Visio, SVG Export Scheduler Job Collection.svg Page-1 -->

<svg
   xmlns:dc="http://purl.org/dc/elements/1.1/"
   xmlns:cc="http://creativecommons.org/ns#"
   xmlns:rdf="http://www.w3.org/1999/02/22-rdf-syntax-ns#"
   xmlns:svg="http://www.w3.org/2000/svg"
   xmlns="http://www.w3.org/2000/svg"
   xmlns:sodipodi="http://sodipodi.sourceforge.net/DTD/sodipodi-0.dtd"
   xmlns:inkscape="http://www.inkscape.org/namespaces/inkscape"
   width="0.78736019in"
   height="0.66633427in"
   viewBox="0 0 56.690002 47.976069"
   xml:space="preserve"
   class="st9"
   version="1.1"
   id="svg64"
   sodipodi:docname="Scheduler Job Collection.svg"
   style="font-size:12px;overflow:visible;color-interpolation-filters:sRGB;fill:none;fill-rule:evenodd;stroke-linecap:square;stroke-miterlimit:3"
   inkscape:version="0.92.5 (2060ec1f9f, 2020-04-08)"><metadata
   id="metadata70"><rdf:RDF><cc:Work
       rdf:about=""><dc:format>image/svg+xml</dc:format><dc:type
         rdf:resource="http://purl.org/dc/dcmitype/StillImage" /></cc:Work></rdf:RDF></metadata><defs
   id="defs68" /><sodipodi:namedview
   pagecolor="#ffffff"
   bordercolor="#666666"
   borderopacity="1"
   objecttolerance="10"
   gridtolerance="10"
   guidetolerance="10"
   inkscape:pageopacity="0"
   inkscape:pageshadow="2"
   inkscape:window-width="640"
   inkscape:window-height="480"
   id="namedview66"
   showgrid="false"
   inkscape:zoom="1.8784545"
   inkscape:cx="37.795221"
   inkscape:cy="17.468111"
   inkscape:window-x="0"
   inkscape:window-y="0"
   inkscape:window-maximized="0"
   inkscape:current-layer="svg64" />
	<style
   type="text/css"
   id="style2">
	<![CDATA[
		.st1 {fill:#ffffff;stroke:none;stroke-linecap:butt;stroke-width:12.24}
		.st2 {fill:#3999c6;stroke:none;stroke-linecap:butt;stroke-width:12.24}
		.st3 {fill:#a0a1a2;stroke:none;stroke-linecap:butt;stroke-width:12.24}
		.st4 {fill:#59b4d9;stroke:none;stroke-linecap:butt;stroke-width:12.24}
		.st5 {fill:#7a7a7a;stroke:none;stroke-linecap:butt;stroke-width:12.24}
		.st6 {fill:#1e1e1e;stroke:none;stroke-linecap:butt;stroke-width:12.24}
		.st7 {fill:#b8d432;stroke:none;stroke-linecap:butt;stroke-width:12.24}
		.st8 {fill:#1e1e1e;fill-opacity:0.2;stroke:none;stroke-linecap:butt;stroke-width:12.24}
		.st9 {fill:none;fill-rule:evenodd;font-size:12px;overflow:visible;stroke-linecap:square;stroke-miterlimit:3}
	]]>
	</style>

	<g
   id="g62"
   transform="translate(-12.24,-12.23823)">
		<title
   id="title4">Page-1</title>
		<g
   id="group12036-1"
   transform="translate(12.24,-34.0157)">
			<title
   id="title6">Scheduler Job Collection.12036</title>
			<g
   id="group12037-2">
				<title
   id="title8">Sheet.12037</title>
				<g
   id="shape12038-3"
   transform="translate(18.2146,-13.3549)">
					<title
   id="title10">Sheet.12038</title>
					<path
   d="m 12.86,66.63 c -3.87,0.44 -7.17,2.22 -9.44,5 -2.28,2.79 -3.42,6.35 -3.08,10.02 0.46,3.78 2.28,7.01 5.12,9.24 2.85,2.22 6.49,3.34 10.25,3 3.87,-0.44 7.17,-2.33 9.45,-5.01 2.28,-2.78 3.41,-6.34 3.07,-10.01 -0.45,-3.79 -2.39,-7.01 -5.23,-9.35 -2.39,-1.89 -5.47,-3 -8.66,-3 -0.45,0 -0.91,0 -1.48,0.11 z"
   class="st1"
   id="path12"
   inkscape:connector-curvature="0"
   style="fill:#ffffff;stroke:none;stroke-width:12.23999977;stroke-linecap:butt" />
				</g>
				<g
   id="shape12039-5"
   transform="translate(25.3866,-11.0178)">
					<title
   id="title15">Sheet.12039</title>
					<path
   d="m 23.22,76.2 c -0.45,-4.45 -2.84,-8.35 -6.14,-10.91 -0.69,-0.56 -1.37,-1 -2.05,-1.33 l -1.26,2.44 c 0.57,0.34 1.03,0.67 1.6,1.01 2.73,2.22 4.67,5.34 5.12,9.01 0.34,3.67 -0.8,7.12 -2.96,9.79 -2.16,2.67 -5.46,4.46 -9.22,4.9 C 5.81,91.33 3.42,90.89 1.25,90 L 0,92.45 c 2.62,1.22 5.58,1.78 8.65,1.44 4.56,-0.44 8.43,-2.67 11.04,-5.9 2.62,-3.11 3.99,-7.34 3.53,-11.79 z"
   class="st2"
   id="path17"
   inkscape:connector-curvature="0"
   style="fill:#3999c6;stroke:none;stroke-width:12.23999977;stroke-linecap:butt" />
				</g>
				<g
   id="shape12040-7"
   transform="translate(15.3686,-12.7985)">
					<title
   id="title20">Sheet.12040</title>
					<path
   d="M 8.31,90.11 C 5.58,87.99 3.76,84.77 3.3,81.09 2.96,77.42 4.1,73.97 6.26,71.3 c 2.16,-2.67 5.47,-4.45 9.22,-4.9 3.08,-0.33 5.92,0.34 8.31,1.78 l 1.26,-2.44 c -2.96,-1.67 -6.38,-2.45 -9.91,-2.12 -4.55,0.45 -8.42,2.67 -11.04,5.9 -2.62,3.23 -4.1,7.35 -3.53,11.8 0.45,4.45 2.73,8.23 6.03,10.79 1.03,0.78 2.17,1.56 3.42,2.12 l 1.25,-2.45 c -1.14,-0.45 -2.05,-1 -2.96,-1.67 z"
   class="st3"
   id="path22"
   inkscape:connector-curvature="0"
   style="fill:#a0a1a2;stroke:none;stroke-width:12.23999977;stroke-linecap:butt" />
				</g>
				<g
   id="shape12041-9"
   transform="translate(15.3686,-12.7985)">
					<title
   id="title25">Sheet.12041</title>
					<path
   d="M 8.31,90.11 C 5.58,87.99 3.76,84.77 3.3,81.09 2.96,77.42 4.1,73.97 6.26,71.3 c 2.16,-2.67 5.47,-4.45 9.22,-4.9 3.08,-0.33 5.92,0.34 8.31,1.78 l 1.26,-2.44 c -2.96,-1.67 -6.38,-2.45 -9.91,-2.12 -4.55,0.45 -8.42,2.67 -11.04,5.9 -2.62,3.23 -4.1,7.35 -3.53,11.8 0.45,4.45 2.73,8.23 6.03,10.79 1.03,0.78 2.17,1.56 3.42,2.12 l 1.25,-2.45 c -1.14,-0.45 -2.05,-1 -2.96,-1.67 z"
   class="st4"
   id="path27"
   inkscape:connector-curvature="0"
   style="fill:#59b4d9;stroke:none;stroke-width:12.23999977;stroke-linecap:butt" />
				</g>
				<g
   id="shape12042-11"
   transform="translate(31.7617,-22.8146)">
					<title
   id="title30">Sheet.12042</title>
					<path
   d="M 7.4,93.89 1.02,91.67 C 0.34,91.44 0,90.67 0.23,90 0.46,89.33 1.25,89 1.94,89.22 l 6.37,2.22 c 0.68,0.23 1.02,1.01 0.8,1.67 -0.23,0.67 -1.03,1.12 -1.71,0.78 z"
   class="st5"
   id="path32"
   inkscape:connector-curvature="0"
   style="fill:#7a7a7a;stroke:none;stroke-width:12.23999977;stroke-linecap:butt" />
				</g>
				<g
   id="shape12043-13"
   transform="translate(30.7371,-25.5969)">
					<title
   id="title35">Sheet.12043</title>
					<path
   d="M 1.37,94.23 C 0.68,94.23 0,93.67 0,92.89 V 81.98 c 0,-0.66 0.57,-1.33 1.37,-1.33 0.68,0 1.36,0.56 1.36,1.33 v 10.91 c 0,0.78 -0.57,1.34 -1.36,1.34 z"
   class="st5"
   id="path37"
   inkscape:connector-curvature="0"
   style="fill:#7a7a7a;stroke:none;stroke-width:12.23999977;stroke-linecap:butt" />
				</g>
				<g
   id="shape12044-15"
   transform="translate(30.1679,-24.9292)">
					<title
   id="title40">Sheet.12044</title>
					<ellipse
   cx="1.9353"
   cy="92.334503"
   rx="1.9353"
   ry="1.89195"
   class="st6"
   id="ellipse42"
   style="fill:#1e1e1e;stroke:none;stroke-width:12.23999977;stroke-linecap:butt" />
				</g>
				<g
   id="shape12045-17"
   transform="translate(8.08272,-0.111291)">
					<title
   id="title45">Sheet.12045</title>
					<path
   d="m 22.43,81.43 6.71,6.12 -5.92,6.68 0.12,-4.34 h -1.6 C 9.79,89.89 0,80.43 0,68.63 0,56.83 9.56,47.48 21.63,47.48 c 6.03,0 11.5,2.45 15.48,6.35 -3.41,-3.23 -8.08,-5.23 -13.2,-5.34 -10.36,0 -18.79,8.23 -18.79,18.36 0,9.79 8.09,17.69 17.88,18.36 z"
   class="st7"
   id="path47"
   inkscape:connector-curvature="0"
   style="fill:#b8d432;stroke:none;stroke-width:12.23999977;stroke-linecap:butt" />
				</g>
				<g
   id="shape12046-19"
   transform="translate(7.96888)">
					<title
   id="title50">Sheet.12046</title>
					<path
   d="M 23.79,87.88 C 11.84,87.44 2.62,77.64 3.07,66.07 3.42,58.84 7.4,52.6 13.21,49.04 5.46,52.27 0,59.84 0,68.63 0,80.32 9.68,89.89 21.74,89.89 h 1.6 l -0.12,4.34 5.92,-6.68 c -1.7,0.33 -3.53,0.44 -5.35,0.33 z"
   class="st8"
   id="path52"
   inkscape:connector-curvature="0"
   style="fill:#1e1e1e;fill-opacity:0.2;stroke:none;stroke-width:12.23999977;stroke-linecap:butt" />
				</g>
				<g
   id="shape12047-21"
   transform="translate(0,-2.78227)">
					<title
   id="title55">Sheet.12047</title>
					<path
   d="m 10.81,94 c -0.22,0 -0.56,-0.11 -0.79,-0.22 L 2.28,89.33 C 0.91,88.55 0,86.99 0,85.55 V 57.5 c 0,-1.45 0.91,-3.12 2.28,-3.78 l 7.74,-4.46 c 0.79,-0.44 1.82,-0.22 2.27,0.56 0.46,0.78 0.23,1.78 -0.56,2.23 L 3.98,56.5 c -0.22,0.11 -0.56,0.67 -0.56,1 v 28.05 c 0,0.33 0.34,0.89 0.56,1 L 11.73,91 c 0.79,0.44 1.02,1.45 0.56,2.22 C 11.95,93.67 11.38,94 10.81,94 Z M 45.88,49.04 c 0.23,0 0.57,0.11 0.79,0.22 l 7.75,4.46 c 1.36,0.78 2.27,2.33 2.27,3.78 v 28.05 c 0,1.44 -0.91,3.11 -2.27,3.78 l -7.75,4.45 C 45.88,94.23 44.85,94 44.4,93.22 43.94,92.45 44.17,91.44 44.97,91 l 7.74,-4.45 c 0.23,-0.11 0.57,-0.67 0.57,-1 V 57.5 c 0,-0.33 -0.34,-0.89 -0.57,-1 l -7.74,-4.45 c -0.8,-0.45 -1.03,-1.45 -0.57,-2.23 0.45,-0.44 0.91,-0.78 1.48,-0.78 z"
   class="st5"
   id="path57"
   inkscape:connector-curvature="0"
   style="fill:#7a7a7a;stroke:none;stroke-width:12.23999977;stroke-linecap:butt" />
				</g>
			</g>
		</g>
	</g>
</svg>

<?xml version="1.0" encoding="UTF-8" standalone="no"?>
<!DOCTYPE svg PUBLIC "-//W3C//DTD SVG 1.1//EN" "http://www.w3.org/Graphics/SVG/1.1/DTD/svg11.dtd">
<!-- Generated by Microsoft Visio, SVG Export Scheduler Job Collection.svg Page-1 -->
<svg xmlns="http://www.w3.org/2000/svg" xmlns:xlink="http://www.w3.org/1999/xlink" xmlns:ev="http://www.w3.org/2001/xml-events"
		width="1.1274in" height="1.3087in" viewBox="0 0 81.1729 94.2264" xml:space="preserve" color-interpolation-filters="sRGB"
		class="st9">
	<style type="text/css">
	<![CDATA[
		.st1 {fill:#ffffff;stroke:none;stroke-linecap:butt;stroke-width:12.24}
		.st2 {fill:#3999c6;stroke:none;stroke-linecap:butt;stroke-width:12.24}
		.st3 {fill:#a0a1a2;stroke:none;stroke-linecap:butt;stroke-width:12.24}
		.st4 {fill:#59b4d9;stroke:none;stroke-linecap:butt;stroke-width:12.24}
		.st5 {fill:#7a7a7a;stroke:none;stroke-linecap:butt;stroke-width:12.24}
		.st6 {fill:#1e1e1e;stroke:none;stroke-linecap:butt;stroke-width:12.24}
		.st7 {fill:#b8d432;stroke:none;stroke-linecap:butt;stroke-width:12.24}
		.st8 {fill:#1e1e1e;fill-opacity:0.2;stroke:none;stroke-linecap:butt;stroke-width:12.24}
		.st9 {fill:none;fill-rule:evenodd;font-size:12px;overflow:visible;stroke-linecap:square;stroke-miterlimit:3}
	]]>
	</style>

	<g>
		<title>Page-1</title>
		<g id="group11757-1" transform="translate(12.24,-34.0157)">
			<title>Scheduler Job Collection.11757</title>
			<g id="group11758-2">
				<title>Sheet.11758</title>
				<g id="shape11759-3" transform="translate(18.2146,-13.3549)">
					<title>Sheet.11759</title>
					<path d="M12.86 66.63 C8.99 67.07 5.69 68.85 3.42 71.63 C1.14 74.42 0 77.98 0.34 81.65 C0.8 85.43 2.62 88.66
								 5.46 90.89 C8.31 93.11 11.95 94.23 15.71 93.89 C19.58 93.45 22.88 91.56 25.16 88.88 C27.44 86.1
								 28.57 82.54 28.23 78.87 C27.78 75.08 25.84 71.86 23 69.52 C20.61 67.63 17.53 66.52 14.34 66.52 C13.89
								 66.52 13.43 66.52 12.86 66.63 Z" class="st1"/>
				</g>
				<g id="shape11760-5" transform="translate(25.3866,-11.0178)">
					<title>Sheet.11760</title>
					<path d="M23.22 76.2 C22.77 71.75 20.38 67.85 17.08 65.29 C16.39 64.73 15.71 64.29 15.03 63.96 L13.77 66.4 C14.34
								 66.74 14.8 67.07 15.37 67.41 C18.1 69.63 20.04 72.75 20.49 76.42 C20.83 80.09 19.69 83.54 17.53
								 86.21 C15.37 88.88 12.07 90.67 8.31 91.11 C5.81 91.33 3.42 90.89 1.25 90 L0 92.45 C2.62 93.67 5.58
								 94.23 8.65 93.89 C13.21 93.45 17.08 91.22 19.69 87.99 C22.31 84.88 23.68 80.65 23.22 76.2 Z"
							class="st2"/>
				</g>
				<g id="shape11761-7" transform="translate(15.3686,-12.7985)">
					<title>Sheet.11761</title>
					<path d="M8.31 90.11 C5.58 87.99 3.76 84.77 3.3 81.09 C2.96 77.42 4.1 73.97 6.26 71.3 C8.42 68.63 11.73 66.85
								 15.48 66.4 C18.56 66.07 21.4 66.74 23.79 68.18 L25.05 65.74 C22.09 64.07 18.67 63.29 15.14 63.62
								 C10.59 64.07 6.72 66.29 4.1 69.52 C1.48 72.75 0 76.87 0.57 81.32 C1.02 85.77 3.3 89.55 6.6 92.11
								 C7.63 92.89 8.77 93.67 10.02 94.23 L11.27 91.78 C10.13 91.33 9.22 90.78 8.31 90.11 Z" class="st3"/>
				</g>
				<g id="shape11762-9" transform="translate(15.3686,-12.7985)">
					<title>Sheet.11762</title>
					<path d="M8.31 90.11 C5.58 87.99 3.76 84.77 3.3 81.09 C2.96 77.42 4.1 73.97 6.26 71.3 C8.42 68.63 11.73 66.85
								 15.48 66.4 C18.56 66.07 21.4 66.74 23.79 68.18 L25.05 65.74 C22.09 64.07 18.67 63.29 15.14 63.62
								 C10.59 64.07 6.72 66.29 4.1 69.52 C1.48 72.75 0 76.87 0.57 81.32 C1.02 85.77 3.3 89.55 6.6 92.11
								 C7.63 92.89 8.77 93.67 10.02 94.23 L11.27 91.78 C10.13 91.33 9.22 90.78 8.31 90.11 Z" class="st4"/>
				</g>
				<g id="shape11763-11" transform="translate(31.7617,-22.8146)">
					<title>Sheet.11763</title>
					<path d="M7.4 93.89 L1.02 91.67 C0.34 91.44 0 90.67 0.23 90 C0.46 89.33 1.25 89 1.94 89.22 L8.31 91.44 C8.99
								 91.67 9.33 92.45 9.11 93.11 C8.88 93.78 8.08 94.23 7.4 93.89 Z" class="st5"/>
				</g>
				<g id="shape11764-13" transform="translate(30.7371,-25.5969)">
					<title>Sheet.11764</title>
					<path d="M1.37 94.23 C0.68 94.23 0 93.67 0 92.89 L0 81.98 C0 81.32 0.57 80.65 1.37 80.65 C2.05 80.65 2.73 81.21
								 2.73 81.98 L2.73 92.89 C2.73 93.67 2.16 94.23 1.37 94.23 Z" class="st5"/>
				</g>
				<g id="shape11765-15" transform="translate(30.1679,-24.9292)">
					<title>Sheet.11765</title>
					<ellipse cx="1.9353" cy="92.3345" rx="1.9353" ry="1.89195" class="st6"/>
				</g>
				<g id="shape11766-17" transform="translate(8.08272,-0.111291)">
					<title>Sheet.11766</title>
					<path d="M22.43 81.43 L29.14 87.55 L23.22 94.23 L23.34 89.89 L21.74 89.89 C9.79 89.89 0 80.43 0 68.63 C0 56.83
								 9.56 47.48 21.63 47.48 C27.66 47.48 33.13 49.93 37.11 53.83 C33.7 50.6 29.03 48.6 23.91 48.49 C13.55
								 48.49 5.12 56.72 5.12 66.85 C5.12 76.64 13.21 84.54 23 85.21 L22.43 81.43 Z" class="st7"/>
				</g>
				<g id="shape11767-19" transform="translate(7.96888,2.41585E-13)">
					<title>Sheet.11767</title>
					<path d="M23.79 87.88 C11.84 87.44 2.62 77.64 3.07 66.07 C3.42 58.84 7.4 52.6 13.21 49.04 C5.46 52.27 0 59.84
								 0 68.63 C0 80.32 9.68 89.89 21.74 89.89 L23.34 89.89 L23.22 94.23 L29.14 87.55 C27.44 87.88 25.61
								 87.99 23.79 87.88 Z" class="st8"/>
				</g>
				<g id="shape11768-21" transform="translate(0,-2.78227)">
					<title>Sheet.11768</title>
					<path d="M10.81 94 C10.59 94 10.25 93.89 10.02 93.78 L2.28 89.33 C0.91 88.55 0 86.99 0 85.55 L0 57.5 C0 56.05
								 0.91 54.38 2.28 53.72 L10.02 49.26 C10.81 48.82 11.84 49.04 12.29 49.82 C12.75 50.6 12.52 51.6 11.73
								 52.05 L3.98 56.5 C3.76 56.61 3.42 57.17 3.42 57.5 L3.42 85.55 C3.42 85.88 3.76 86.44 3.98 86.55
								 L11.73 91 C12.52 91.44 12.75 92.45 12.29 93.22 C11.95 93.67 11.38 94 10.81 94 ZM45.88 49.04 C46.11
								 49.04 46.45 49.15 46.67 49.26 L54.42 53.72 C55.78 54.5 56.69 56.05 56.69 57.5 L56.69 85.55 C56.69
								 86.99 55.78 88.66 54.42 89.33 L46.67 93.78 C45.88 94.23 44.85 94 44.4 93.22 C43.94 92.45 44.17 91.44
								 44.97 91 L52.71 86.55 C52.94 86.44 53.28 85.88 53.28 85.55 L53.28 57.5 C53.28 57.17 52.94 56.61
								 52.71 56.5 L44.97 52.05 C44.17 51.6 43.94 50.6 44.4 49.82 C44.85 49.38 45.31 49.04 45.88 49.04 Z"
							class="st5"/>
				</g>
			</g>
		</g>
	</g>
</svg>
